X:223
T:B223-  I tell the, Dick
S:(2nd/2)
Q:1/4=120
L:1/4
M:3/4
K:G
d|d2e|d2c|B2A|G2d|\
(ef)g|(fg)a|a2g|g2||a|\
b2g|a2f|g2e|f2B|c2B|\
A2a|f2B|c2B|A2G|F2E|\
D2a|a2g|g2f|g2|]

